public/icons/create_Collection_Icon.svg

<svg width="276" height="276" viewBox="0 0 276 276" fill="none" xmlns="http://www.w3.org/2000/svg">
<g clip-path="url(#clip0_1617_11612)">
<path d="M138 253C201.513 253 253 201.513 253 138C253 74.4873 201.513 23 138 23C74.4872 23 23 74.4873 23 138C23 201.513 74.4872 253 138 253Z" fill="url(#paint0_linear_1617_11612)"/>
<g filter="url(#filter0_f_1617_11612)">
<path d="M138 222C184.392 222 222 184.392 222 138C222 91.6081 184.392 54 138 54C91.6081 54 54 91.6081 54 138C54 184.392 91.6081 222 138 222Z" fill="url(#paint1_linear_1617_11612)"/>
</g>
<path fill-rule="evenodd" clip-rule="evenodd" d="M83.0964 51.5801C85.0204 51.5801 86.5801 50.0204 86.5801 48.0964C86.5801 46.1725 85.0204 44.6128 83.0964 44.6128C81.1725 44.6128 79.6128 46.1725 79.6128 48.0964C79.6128 50.0204 81.1725 51.5801 83.0964 51.5801ZM83.0964 54.1929C86.4634 54.1929 89.1929 51.4634 89.1929 48.0964C89.1929 44.7295 86.4634 42 83.0964 42C79.7295 42 77 44.7295 77 48.0964C77 51.4634 79.7295 54.1929 83.0964 54.1929Z" fill="white"/>
<path fill-rule="evenodd" clip-rule="evenodd" d="M51.0964 198.58C53.0204 198.58 54.5801 197.02 54.5801 195.096C54.5801 193.172 53.0204 191.613 51.0964 191.613C49.1725 191.613 47.6128 193.172 47.6128 195.096C47.6128 197.02 49.1725 198.58 51.0964 198.58ZM51.0964 201.193C54.4634 201.193 57.1929 198.463 57.1929 195.096C57.1929 191.729 54.4634 189 51.0964 189C47.7295 189 45 191.729 45 195.096C45 198.463 47.7295 201.193 51.0964 201.193Z" fill="white"/>
<path fill-rule="evenodd" clip-rule="evenodd" d="M226.096 100.58C228.02 100.58 229.58 99.0204 229.58 97.0964C229.58 95.1725 228.02 93.6128 226.096 93.6128C224.172 93.6128 222.613 95.1725 222.613 97.0964C222.613 99.0204 224.172 100.58 226.096 100.58ZM226.096 103.193C229.463 103.193 232.193 100.463 232.193 97.0964C232.193 93.7295 229.463 91 226.096 91C222.729 91 220 93.7295 220 97.0964C220 100.463 222.729 103.193 226.096 103.193Z" fill="white"/>
<path d="M43.391 52.1887C43.6472 51.1272 45.1571 51.1272 45.4133 52.1887L46.2757 55.7613C46.3673 56.1406 46.6635 56.4368 47.0428 56.5284L50.6154 57.3908C51.6769 57.647 51.6769 59.1569 50.6154 59.4131L47.0428 60.2755C46.6635 60.3671 46.3673 60.6632 46.2757 61.0426L45.4133 64.6152C45.1571 65.6767 43.6472 65.6767 43.391 64.6152L42.5286 61.0426C42.437 60.6632 42.1409 60.3671 41.7615 60.2755L38.1889 59.4131C37.1274 59.1569 37.1274 57.647 38.1889 57.3908L41.7615 56.5284C42.1409 56.4368 42.437 56.1406 42.5286 55.7613L43.391 52.1887Z" fill="white"/>
<path d="M229.294 51.5914C229.574 50.4279 231.229 50.4279 231.51 51.5914L232.456 55.5074C232.556 55.9232 232.881 56.2479 233.296 56.3483L237.212 57.2936C238.376 57.5744 238.376 59.2294 237.212 59.5103L233.296 60.4556C232.881 60.556 232.556 60.8806 232.456 61.2964L231.51 65.2125C231.229 66.376 229.574 66.376 229.294 65.2125L228.348 61.2964C228.248 60.8806 227.923 60.556 227.507 60.4556L223.591 59.5103C222.428 59.2294 222.428 57.5744 223.591 57.2936L227.507 56.3483C227.923 56.2479 228.248 55.9232 228.348 55.5074L229.294 51.5914Z" fill="url(#paint2_linear_1617_11612)"/>
<path d="M55.0309 221.238C56.3549 221.026 57.4119 222.326 56.9335 223.579L53.7045 232.034C53.2261 233.287 51.5711 233.552 50.7255 232.511L45.0176 225.487C44.1719 224.447 44.7699 222.881 46.0939 222.669L55.0309 221.238Z" fill="url(#paint3_linear_1617_11612)"/>
<path d="M213.978 198.007C213.647 196.707 214.846 195.537 216.137 195.899L224.851 198.348C226.141 198.711 226.556 200.335 225.596 201.271L219.119 207.593C218.159 208.53 216.546 208.076 216.214 206.777L213.978 198.007Z" fill="url(#paint4_linear_1617_11612)"/>
<path d="M182.509 153.865L104.862 125.603C98.91 123.437 92.3289 126.506 90.1626 132.458L71.8329 182.818C69.6666 188.77 72.7354 195.351 78.6873 197.517L156.335 225.779C162.287 227.945 168.868 224.876 171.034 218.924L189.364 168.564C191.53 162.612 188.461 156.031 182.509 153.865Z" fill="url(#paint5_linear_1617_11612)"/>
<path d="M179.357 169.463L202.294 136.424C205.906 131.221 204.617 124.075 199.414 120.463L166.375 97.5254C161.172 93.9132 154.026 95.2029 150.414 100.406L127.477 133.445C123.865 138.648 125.154 145.794 130.357 149.406L163.396 172.343C168.599 175.955 175.745 174.665 179.357 169.463Z" fill="url(#paint6_linear_1617_11612)"/>
<path d="M153.244 143.168C151.841 145.102 149.145 145.53 147.211 144.126C145.277 142.723 144.85 140.027 146.253 138.093C147.657 136.159 150.353 135.731 152.287 137.135C154.22 138.539 154.648 141.235 153.244 143.168Z" fill="url(#paint7_linear_1617_11612)"/>
<path d="M166.008 125.555L163.339 123.619L150.594 141.194L153.263 143.13L166.008 125.555Z" fill="url(#paint8_linear_1617_11612)"/>
<path d="M168.242 146.287C166.838 148.221 164.142 148.649 162.209 147.245C160.275 145.842 159.847 143.146 161.251 141.212C162.654 139.278 165.35 138.85 167.284 140.254C169.218 141.658 169.646 144.354 168.242 146.287Z" fill="url(#paint9_linear_1617_11612)"/>
<path d="M181.031 128.664L178.362 126.729L165.619 144.306L168.289 146.241L181.031 128.664Z" fill="url(#paint10_linear_1617_11612)"/>
<path d="M180.997 128.708L161.643 125.968L163.343 123.615L182.694 126.364L180.997 128.708Z" fill="url(#paint11_linear_1617_11612)"/>
<path d="M177.784 133.138L158.429 130.398L160.129 128.045L179.489 130.797L177.784 133.138Z" fill="url(#paint12_linear_1617_11612)"/>
<path d="M162.372 96.3294L155.655 65.2095C154.319 59.0182 148.216 55.0824 142.025 56.4188L101.331 65.2022C95.1401 66.5385 91.2044 72.6409 92.5408 78.8322L99.2578 109.952C100.594 116.143 106.696 120.079 112.888 118.743L153.581 109.959C159.773 108.623 163.708 102.521 162.372 96.3294Z" fill="url(#paint13_linear_1617_11612)"/>
<path d="M161.842 93.1316L139.031 74.8164L130.212 92.2027L120.922 86.8469L108.078 104.726L98.4443 106.802L98.903 108.958C100.451 116.115 107.504 120.668 114.661 119.119L152.128 111.034C159.285 109.486 163.838 102.433 162.289 95.2763L161.831 93.1316H161.842Z" fill="url(#paint14_linear_1617_11612)"/>
<path opacity="0.9" d="M107.848 84.7707C111.415 84.6789 113.72 81.1007 112.332 77.8207C111.552 75.9858 109.683 74.7816 107.687 74.8274C104.121 74.9192 101.815 78.4974 103.203 81.7774C103.983 83.6123 105.852 84.8165 107.848 84.7707Z" fill="white"/>
<path d="M169.833 217.079C168.246 223.751 161.197 227.548 154.753 225.202L77.25 196.993C71.7786 195.002 68.6678 189.227 70.0153 183.562L81.0213 137.298C82.6084 130.626 89.6568 126.829 96.1009 129.175L173.604 157.384C179.075 159.375 182.186 165.15 180.839 170.815L169.833 217.079Z" fill="url(#paint15_linear_1617_11612)"/>
</g>
<defs>
<filter id="filter0_f_1617_11612" x="0" y="0" width="276" height="276" filterUnits="userSpaceOnUse" color-interpolation-filters="sRGB">
<feFlood flood-opacity="0" result="BackgroundImageFix"/>
<feBlend mode="normal" in="SourceGraphic" in2="BackgroundImageFix" result="shape"/>
<feGaussianBlur stdDeviation="27" result="effect1_foregroundBlur_1617_11612"/>
</filter>
<linearGradient id="paint0_linear_1617_11612" x1="55.0834" y1="23" x2="230.623" y2="59.541" gradientUnits="userSpaceOnUse">
<stop stop-color="#A259FF"/>
<stop offset="1" stop-color="#3B3B3B"/>
</linearGradient>
<linearGradient id="paint1_linear_1617_11612" x1="235" y1="152" x2="172.494" y2="259.743" gradientUnits="userSpaceOnUse">
<stop stop-color="#A259FF" stop-opacity="0"/>
<stop offset="1" stop-color="#FF6250"/>
</linearGradient>
<linearGradient id="paint2_linear_1617_11612" x1="233.687" y1="54.1335" x2="248.417" y2="65.7031" gradientUnits="userSpaceOnUse">
<stop stop-color="#A259FF"/>
<stop offset="1" stop-color="#377DF7"/>
</linearGradient>
<linearGradient id="paint3_linear_1617_11612" x1="56.3963" y1="225.526" x2="55.9042" y2="240.182" gradientUnits="userSpaceOnUse">
<stop stop-color="#A259FF"/>
<stop offset="1" stop-color="#377DF7"/>
</linearGradient>
<linearGradient id="paint4_linear_1617_11612" x1="218.125" y1="196.258" x2="232.765" y2="195.418" gradientUnits="userSpaceOnUse">
<stop stop-color="#A259FF"/>
<stop offset="1" stop-color="#377DF7"/>
</linearGradient>
<linearGradient id="paint5_linear_1617_11612" x1="159.078" y1="163.434" x2="201.913" y2="265.809" gradientUnits="userSpaceOnUse">
<stop stop-color="#A259FF"/>
<stop offset="0.416667" stop-color="#A259FF" stop-opacity="0"/>
</linearGradient>
<linearGradient id="paint6_linear_1617_11612" x1="171.596" y1="156.031" x2="98.0098" y2="178.644" gradientUnits="userSpaceOnUse">
<stop stop-color="#FF7262"/>
<stop offset="0.317708" stop-color="#A259FF"/>
</linearGradient>
<linearGradient id="paint7_linear_1617_11612" x1="160.028" y1="123.154" x2="168.184" y2="140.333" gradientUnits="userSpaceOnUse">
<stop stop-color="#3B3B3B"/>
<stop offset="1" stop-color="#A259FF"/>
</linearGradient>
<linearGradient id="paint8_linear_1617_11612" x1="188.84" y1="93.6561" x2="196.031" y2="100.715" gradientUnits="userSpaceOnUse">
<stop stop-color="#3B3B3B"/>
<stop offset="1" stop-color="#A259FF"/>
</linearGradient>
<linearGradient id="paint9_linear_1617_11612" x1="175.026" y1="126.274" x2="183.181" y2="143.452" gradientUnits="userSpaceOnUse">
<stop stop-color="#3B3B3B"/>
<stop offset="1" stop-color="#A259FF"/>
</linearGradient>
<linearGradient id="paint10_linear_1617_11612" x1="203.858" y1="96.7604" x2="211.05" y2="103.819" gradientUnits="userSpaceOnUse">
<stop stop-color="#3B3B3B"/>
<stop offset="1" stop-color="#A259FF"/>
</linearGradient>
<linearGradient id="paint11_linear_1617_11612" x1="185.53" y1="114.266" x2="185.236" y2="134.474" gradientUnits="userSpaceOnUse">
<stop stop-color="#3B3B3B"/>
<stop offset="1" stop-color="#A259FF"/>
</linearGradient>
<linearGradient id="paint12_linear_1617_11612" x1="182.324" y1="118.699" x2="182.028" y2="138.907" gradientUnits="userSpaceOnUse">
<stop stop-color="#3B3B3B"/>
<stop offset="1" stop-color="#A259FF"/>
</linearGradient>
<linearGradient id="paint13_linear_1617_11612" x1="136.569" y1="64.8942" x2="149.555" y2="107.339" gradientUnits="userSpaceOnUse">
<stop stop-color="#FF7262"/>
<stop offset="1" stop-color="#A259FF"/>
</linearGradient>
<linearGradient id="paint14_linear_1617_11612" x1="127.394" y1="136.001" x2="113.288" y2="83.8966" gradientUnits="userSpaceOnUse">
<stop stop-color="#A259FF"/>
<stop offset="1" stop-color="white"/>
</linearGradient>
<linearGradient id="paint15_linear_1617_11612" x1="151.265" y1="202.805" x2="97.3231" y2="65.5615" gradientUnits="userSpaceOnUse">
<stop stop-color="#A259FF"/>
<stop offset="0.666667" stop-color="white"/>
</linearGradient>
<clipPath id="clip0_1617_11612">
<rect width="276" height="276" fill="white"/>
</clipPath>
</defs>
</svg>

<svg width="276" height="276" fill="none" xmlns="http://www.w3.org/2000/svg"><g clip-path="url(#a)"><path d="M138 253c63.513 0 115-51.487 115-115S201.513 23 138 23 23 74.487 23 138s51.487 115 115 115Z" fill="url(#b)"/><g filter="url(#c)"><path d="M138 222c46.392 0 84-37.608 84-84s-37.608-84-84-84-84 37.608-84 84 37.608 84 84 84Z" fill="url(#d)"/></g><path fill-rule="evenodd" clip-rule="evenodd" d="M83.096 51.58a3.484 3.484 0 1 0 0-6.967 3.484 3.484 0 0 0 0 6.967Zm0 2.613a6.097 6.097 0 1 0 0-12.193 6.097 6.097 0 0 0 0 12.193ZM51.096 198.58a3.484 3.484 0 1 0 0-6.968 3.484 3.484 0 0 0 0 6.968Zm0 2.613a6.097 6.097 0 1 0 0-12.194 6.097 6.097 0 0 0 0 12.194ZM226.096 100.58a3.484 3.484 0 1 0 0-6.968 3.484 3.484 0 0 0 0 6.968Zm0 2.613a6.097 6.097 0 1 0 0-12.195 6.097 6.097 0 0 0 0 12.195Z" fill="#fff"/><path d="M43.391 52.189c.256-1.062 1.766-1.062 2.022 0l.863 3.572c.091.38.387.676.767.767l3.572.863c1.062.256 1.062 1.766 0 2.022l-3.572.863a1.04 1.04 0 0 0-.767.767l-.863 3.572c-.256 1.062-1.766 1.062-2.022 0l-.862-3.572a1.04 1.04 0 0 0-.768-.767l-3.572-.863c-1.062-.256-1.062-1.766 0-2.022l3.572-.863a1.04 1.04 0 0 0 .768-.767l.862-3.572Z" fill="#fff"/><path d="M229.294 51.591c.28-1.163 1.935-1.163 2.216 0l.946 3.916c.1.416.425.74.84.841l3.916.946c1.164.28 1.164 1.935 0 2.216l-3.916.946c-.415.1-.74.425-.84.84l-.946 3.917c-.281 1.163-1.936 1.163-2.216 0l-.946-3.917a1.14 1.14 0 0 0-.841-.84l-3.916-.946c-1.163-.28-1.163-1.936 0-2.216l3.916-.946c.416-.1.741-.425.841-.84l.946-3.917Z" fill="url(#e)"/><path d="M55.03 221.238c1.325-.212 2.382 1.088 1.904 2.341l-3.23 8.455c-.478 1.253-2.133 1.518-2.979.477l-5.707-7.024c-.846-1.04-.248-2.606 1.076-2.818l8.937-1.431Z" fill="url(#f)"/><path d="M213.978 198.007c-.331-1.3.868-2.47 2.159-2.108l8.714 2.449c1.29.363 1.705 1.987.745 2.923l-6.477 6.322c-.96.937-2.573.483-2.905-.816l-2.236-8.77Z" fill="url(#g)"/><path d="m182.509 153.865-77.647-28.262c-5.952-2.166-12.533.903-14.7 6.855l-18.33 50.36c-2.165 5.952.903 12.533 6.855 14.699l77.648 28.262c5.952 2.166 12.533-.903 14.699-6.855l18.33-50.36c2.166-5.952-.903-12.533-6.855-14.699Z" fill="url(#h)"/><path d="m179.357 169.463 22.937-33.039c3.612-5.203 2.323-12.349-2.88-15.961l-33.039-22.938c-5.203-3.612-12.349-2.322-15.961 2.881l-22.937 33.039c-3.612 5.203-2.323 12.349 2.88 15.961l33.039 22.937c5.203 3.612 12.349 2.322 15.961-2.88Z" fill="url(#i)"/><path d="M153.244 143.168a4.314 4.314 0 0 1-6.033.958 4.315 4.315 0 0 1-.958-6.033 4.315 4.315 0 0 1 6.034-.958 4.315 4.315 0 0 1 .957 6.033Z" fill="url(#j)"/><path d="m166.008 125.555-2.669-1.936-12.745 17.575 2.669 1.936 12.745-17.575Z" fill="url(#k)"/><path d="M168.242 146.287a4.314 4.314 0 0 1-6.033.958 4.314 4.314 0 0 1-.958-6.033 4.314 4.314 0 0 1 6.033-.958 4.314 4.314 0 0 1 .958 6.033Z" fill="url(#l)"/><path d="m181.031 128.664-2.669-1.935-12.743 17.577 2.67 1.935 12.742-17.577Z" fill="url(#m)"/><path d="m180.997 128.708-19.354-2.74 1.7-2.353 19.351 2.749-1.697 2.344Z" fill="url(#n)"/><path d="m177.784 133.138-19.355-2.74 1.7-2.353 19.36 2.752-1.705 2.341Z" fill="url(#o)"/><path d="m162.372 96.33-6.717-31.12c-1.336-6.192-7.439-10.128-13.63-8.791l-40.694 8.783c-6.19 1.337-10.127 7.439-8.79 13.63l6.717 31.12c1.336 6.191 7.438 10.127 13.63 8.791l40.693-8.784c6.192-1.336 10.127-7.438 8.791-13.63Z" fill="url(#p)"/><path d="m161.842 93.132-22.811-18.316-8.819 17.387-9.29-5.356-12.844 17.879-9.634 2.076.459 2.156c1.548 7.157 8.601 11.71 15.758 10.161l37.467-8.085c7.157-1.548 11.71-8.601 10.161-15.758l-.458-2.144h.011Z" fill="url(#q)"/><path opacity=".9" d="M107.848 84.77a4.975 4.975 0 0 0 4.484-6.95 4.965 4.965 0 0 0-4.645-2.993 4.975 4.975 0 0 0-4.484 6.95 4.965 4.965 0 0 0 4.645 2.994Z" fill="#fff"/><path d="M169.833 217.079c-1.587 6.672-8.636 10.469-15.08 8.123L77.25 196.993a11.468 11.468 0 0 1-7.235-13.431l11.006-46.264c1.587-6.672 8.636-10.469 15.08-8.123l77.503 28.209a11.469 11.469 0 0 1 7.235 13.431l-11.006 46.264Z" fill="url(#r)"/></g><defs><linearGradient id="b" x1="55.083" y1="23" x2="230.623" y2="59.541" gradientUnits="userSpaceOnUse"><stop stop-color="#A259FF"/><stop offset="1" stop-color="#3B3B3B"/></linearGradient><linearGradient id="k" x1="188.84" y1="93.656" x2="196.031" y2="100.715" gradientUnits="userSpaceOnUse"><stop stop-color="#3B3B3B"/><stop offset="1" stop-color="#A259FF"/></linearGradient><linearGradient id="e" x1="233.687" y1="54.133" x2="248.417" y2="65.703" gradientUnits="userSpaceOnUse"><stop stop-color="#A259FF"/><stop offset="1" stop-color="#377DF7"/></linearGradient><linearGradient id="f" x1="56.396" y1="225.526" x2="55.904" y2="240.182" gradientUnits="userSpaceOnUse"><stop stop-color="#A259FF"/><stop offset="1" stop-color="#377DF7"/></linearGradient><linearGradient id="g" x1="218.125" y1="196.258" x2="232.765" y2="195.418" gradientUnits="userSpaceOnUse"><stop stop-color="#A259FF"/><stop offset="1" stop-color="#377DF7"/></linearGradient><linearGradient id="h" x1="159.078" y1="163.434" x2="201.913" y2="265.809" gradientUnits="userSpaceOnUse"><stop stop-color="#A259FF"/><stop offset=".417" stop-color="#A259FF" stop-opacity="0"/></linearGradient><linearGradient id="i" x1="171.596" y1="156.031" x2="98.01" y2="178.644" gradientUnits="userSpaceOnUse"><stop stop-color="#FF7262"/><stop offset=".318" stop-color="#A259FF"/></linearGradient><linearGradient id="j" x1="160.028" y1="123.154" x2="168.184" y2="140.333" gradientUnits="userSpaceOnUse"><stop stop-color="#3B3B3B"/><stop offset="1" stop-color="#A259FF"/></linearGradient><linearGradient id="d" x1="235" y1="152" x2="172.494" y2="259.743" gradientUnits="userSpaceOnUse"><stop stop-color="#A259FF" stop-opacity="0"/><stop offset="1" stop-color="#FF6250"/></linearGradient><linearGradient id="l" x1="175.026" y1="126.274" x2="183.181" y2="143.452" gradientUnits="userSpaceOnUse"><stop stop-color="#3B3B3B"/><stop offset="1" stop-color="#A259FF"/></linearGradient><linearGradient id="m" x1="203.858" y1="96.76" x2="211.05" y2="103.819" gradientUnits="userSpaceOnUse"><stop stop-color="#3B3B3B"/><stop offset="1" stop-color="#A259FF"/></linearGradient><linearGradient id="n" x1="185.53" y1="114.266" x2="185.236" y2="134.474" gradientUnits="userSpaceOnUse"><stop stop-color="#3B3B3B"/><stop offset="1" stop-color="#A259FF"/></linearGradient><linearGradient id="o" x1="182.324" y1="118.699" x2="182.028" y2="138.907" gradientUnits="userSpaceOnUse"><stop stop-color="#3B3B3B"/><stop offset="1" stop-color="#A259FF"/></linearGradient><linearGradient id="p" x1="136.569" y1="64.894" x2="149.555" y2="107.339" gradientUnits="userSpaceOnUse"><stop stop-color="#FF7262"/><stop offset="1" stop-color="#A259FF"/></linearGradient><linearGradient id="q" x1="127.394" y1="136.001" x2="113.288" y2="83.897" gradientUnits="userSpaceOnUse"><stop stop-color="#A259FF"/><stop offset="1" stop-color="#fff"/></linearGradient><linearGradient id="r" x1="151.265" y1="202.805" x2="97.323" y2="65.561" gradientUnits="userSpaceOnUse"><stop stop-color="#A259FF"/><stop offset=".667" stop-color="#fff"/></linearGradient><clipPath id="a"><path fill="#fff" d="M0 0h276v276H0z"/></clipPath><filter id="c" x="0" y="0" width="276" height="276" filterUnits="userSpaceOnUse" color-interpolation-filters="sRGB"><feFlood flood-opacity="0" result="BackgroundImageFix"/><feBlend in="SourceGraphic" in2="BackgroundImageFix" result="shape"/><feGaussianBlur stdDeviation="27" result="effect1_foregroundBlur_1617_11612"/></filter></defs></svg>
